X:1
T:Title
%%score ( 1 2 ) { 3 | 4 }
L:1/8
Q:1/4=107
M:4/4
K:A
V:1 treble nm="Grand Piano, Staff"
V:2 treble 
V:3 bass nm="Choir Pad, Ferrier, 77.77"
V:4 bass 
V:1
 F2 [DF]2 [DF]2 D2 | z2 B2 z4 | [CA]2 [DB][Ec] [Fd]2 [Ec]2 | [DB]2 [Ec][DB] [CA]4 | %4
w: By~John~Bacchus~Dykes,~1862 * * *||||
 [DF]2 [DF]2 [DF]2 D2 | [FA]2 [EB]c [Fd]4 | [Bd]2 [=GB]2 [FA]2 [DF]2 | [DE]2 [CF]E D4- | D4 z4 |] %9
w: |||||
V:2
 x8 | [FA]2 DE [FA]4 | x8 | x8 | x8 | x8 | x8 | x8 | x8 |] %9
V:3
 D2 A,2 F,2 A,2 | D2 B,C D4 | A,2 G,2 A,2 A,2 | G,2 G,2 A,4 | A,2 A,2 A,2 A,2 | %5
 A,2[K:treble] E2 D4 | D2 D2 D2[K:bass] A,2 | A,2 =G,2 F,4- | F,4 z4 |] %9
V:4
 D,2 D,2 D,2 F,2 | D,2 =G,2 D,4 | F,2 E,2 D,2 A,,2 | E,2 E,2 A,,4 | D,2 A,,2 D,2 F,2 | %5
 D,2 C,2 B,,4 | =G,,2 B,,2 D,2 F,2 | z2 A,,2 D,4- | D,4 z4 |] %9

